X: 2349
T: Polska efter Snickar Erik
S: efter Snickar-Erik Olsson
O: Emnebo, Ovanåkers socken, Hälsingland
B: EÖ, nr 508
R: Polska
Z: Nils L
M: 3/4
L: 1/8
K: D
de  fd fd | ff  af af | aa gg ff | ee d2 A2 |  \
d>e fd fd | f>g af af | aa gg ff | ee d4    ::
ff ee ee | ff ee ee | ff gg ff | ee d2>A2  | \
ff ee ee | ff ee ee | ff gg ff | ee d4    :|
(:musicend:)

(:music:)
